public/logos/QR.svg

<?xml version="1.0" encoding="UTF-8"?>
<svg xmlns="http://www.w3.org/2000/svg" xmlns:xlink="http://www.w3.org/1999/xlink" width="176pt" height="51.76pt" viewBox="0 0 176 51.76" version="1.1">
<defs>
<clipPath id="clip1">
  <path d="M 79 41 L 118 41 L 118 51.761719 L 79 51.761719 Z M 79 41 "/>
</clipPath>
</defs>
<g id="surface1">
<path style=" stroke:none;fill-rule:evenodd;fill:rgb(47.889709%,49.215698%,50.946045%);fill-opacity:1;" d="M 136.355469 7.402344 L 149.65625 6.609375 C 142.628906 6.371094 138.460938 6.371094 137.148438 6.511719 L 135.183594 6.933594 C 134.949219 7.167969 135.371094 7.308594 136.355469 7.402344 "/>
<path style=" stroke:none;fill-rule:evenodd;fill:rgb(47.889709%,49.215698%,50.946045%);fill-opacity:1;" d="M 133.402344 10.730469 L 155.277344 10.257812 L 134.105469 9.511719 C 131.292969 9.324219 129.75 9.511719 129.515625 10.027344 C 129.09375 10.730469 130.453125 10.964844 133.402344 10.730469 "/>
<path style=" stroke:none;fill-rule:evenodd;fill:rgb(47.889709%,49.215698%,50.946045%);fill-opacity:1;" d="M 125.675781 14.945312 L 158.695312 13.773438 L 128.953125 13.398438 C 126.703125 13.398438 125.53125 13.632812 125.53125 14.101562 L 125.675781 14.945312 "/>
<path style=" stroke:none;fill-rule:evenodd;fill:rgb(47.889709%,49.215698%,50.946045%);fill-opacity:1;" d="M 127.875 19.347656 L 161.039062 17.847656 L 125.113281 17.285156 C 124.175781 17.382812 123.660156 17.613281 123.566406 18.082031 C 123.425781 19.113281 124.832031 19.488281 127.875 19.347656 "/>
<path style=" stroke:none;fill-rule:evenodd;fill:rgb(47.889709%,49.215698%,50.946045%);fill-opacity:1;" d="M 123.097656 23.140625 L 162.351562 22.15625 L 126.050781 21.128906 C 123.707031 21.128906 122.488281 21.503906 122.300781 22.390625 C 122.257812 22.769531 122.535156 23.09375 123.097656 23.140625 "/>
<path style=" stroke:none;fill-rule:evenodd;fill:rgb(47.889709%,49.215698%,50.946045%);fill-opacity:1;" d="M 122.769531 27.125 L 135.183594 26.984375 L 136.914062 25.015625 L 124.503906 25.015625 C 122.628906 25.015625 121.785156 25.4375 122.019531 26.28125 C 122.066406 26.75 122.300781 27.078125 122.769531 27.125 "/>
<path style=" stroke:none;fill-rule:evenodd;fill:rgb(47.889709%,49.215698%,50.946045%);fill-opacity:1;" d="M 125.53125 31.292969 L 133.402344 30.730469 L 134.433594 28.949219 L 125.207031 29.089844 C 123.425781 29.089844 122.535156 29.464844 122.535156 30.167969 C 122.535156 30.730469 122.769531 31.058594 123.191406 31.105469 L 125.53125 31.292969 "/>
<path style=" stroke:none;fill-rule:evenodd;fill:rgb(47.889709%,49.215698%,50.946045%);fill-opacity:1;" d="M 126.753906 35.039062 L 146.753906 34.242188 L 145.347656 32.839844 L 126.050781 32.980469 L 124.035156 33.210938 C 123.800781 33.398438 123.707031 33.679688 123.800781 34.101562 C 123.941406 34.945312 124.972656 35.273438 126.753906 35.039062 "/>
<path style=" stroke:none;fill-rule:evenodd;fill:rgb(47.889709%,49.215698%,50.946045%);fill-opacity:1;" d="M 149.421875 37.523438 L 129.515625 37.378906 C 127.078125 37.378906 126.003906 37.664062 126.050781 38.363281 C 126.28125 39.253906 127.640625 39.492188 130.21875 39.253906 L 150.640625 38.785156 L 149.421875 37.523438 "/>
<path style=" stroke:none;fill-rule:evenodd;fill:rgb(56.001282%,58.369446%,60.020447%);fill-opacity:1;" d="M 151.902344 41.597656 L 130.5 41.410156 C 130.03125 41.410156 129.796875 41.597656 129.796875 41.972656 C 129.796875 42.675781 131.292969 43 134.246094 42.816406 L 154.011719 42.113281 L 151.902344 41.597656 "/>
<path style=" stroke:none;fill-rule:evenodd;fill:rgb(56.001282%,58.369446%,60.020447%);fill-opacity:1;" d="M 138.414062 45.71875 L 150.125 45.34375 L 137.851562 44.875 C 136.214844 44.640625 135.371094 44.78125 135.371094 45.34375 L 138.414062 45.71875 "/>
<path style=" stroke:none;fill-rule:evenodd;fill:rgb(46.165466%,7.312012%,22.692871%);fill-opacity:1;" d="M 171.71875 1.828125 C 167.453125 3.65625 159.164062 8.480469 146.894531 16.445312 C 153.214844 12.929688 159.023438 10.210938 164.410156 8.246094 L 174.011719 5.0625 L 175.886719 5.203125 C 176.261719 5.4375 175.699219 5.765625 174.386719 6.136719 C 172.140625 6.84375 167.972656 8.574219 161.882812 11.382812 C 154.855469 14.570312 150.828125 16.820312 149.65625 18.222656 L 157.761719 18.410156 C 156.589844 19.863281 155.183594 20.660156 153.542969 20.753906 L 151.996094 20.800781 C 153.777344 23.703125 156.683594 25.34375 160.664062 25.578125 L 163.378906 25.71875 L 163.519531 27.828125 L 152.136719 28.949219 L 163.144531 29.652344 C 163.289062 31.292969 163.242188 32.136719 163.007812 32.136719 L 151.902344 32.136719 L 162.113281 33.632812 L 161.507812 36.257812 L 152.277344 36.960938 L 160.476562 37.847656 L 158.554688 40.472656 L 153.542969 41.128906 L 157.433594 41.972656 L 153.167969 44.921875 C 150.125 41.878906 147.828125 39.300781 146.378906 37.378906 L 143.378906 33.210938 L 139.257812 34.101562 C 142.863281 31.527344 144.785156 29.558594 145.113281 28.386719 C 145.019531 26.140625 144.878906 24.640625 144.644531 23.796875 L 143.144531 25.34375 C 142.910156 23.09375 142.535156 21.691406 142.164062 21.128906 L 141.601562 22.859375 L 139.117188 25.015625 L 140.894531 24.875 C 139.820312 30.871094 137.386719 34.710938 133.542969 36.257812 L 131.292969 33.917969 L 132.839844 32.511719 L 130.5 33.210938 L 130.03125 32.511719 C 132.324219 28.714844 134.105469 26.046875 135.511719 24.5 L 142.300781 18.316406 C 146.144531 15.132812 149.65625 12.460938 152.980469 10.355469 C 161.644531 5.109375 167.925781 1.78125 171.71875 0.378906 C 173.214844 -0.183594 173.824219 -0.0898438 173.449219 0.519531 L 171.71875 1.828125 "/>
<g clip-path="url(#clip1)" clip-rule="nonzero">
<path style=" stroke:none;fill-rule:evenodd;fill:rgb(46.165466%,7.312012%,22.692871%);fill-opacity:1;" d="M 107.914062 47.402344 L 107.914062 46.175781 C 107.914062 45.539062 108.742188 44.878906 110.367188 44.21875 L 111.265625 43.773438 L 111.265625 48.34375 L 113.195312 48.34375 L 113.195312 43.347656 L 112.914062 43.230469 C 112.867188 43.113281 112.914062 42.996094 113.03125 42.875 C 113.222656 42.710938 113.738281 42.359375 114.609375 41.769531 L 114.609375 49.640625 L 92.460938 49.640625 C 92.460938 50.371094 92.175781 50.960938 91.585938 51.359375 L 90.339844 51.761719 C 89.9375 51.761719 89.535156 51.550781 89.109375 51.171875 C 88.878906 50.960938 88.921875 50.839844 89.183594 50.820312 C 89.773438 51.007812 90.242188 50.9375 90.59375 50.605469 C 90.953125 50.371094 91.113281 50.0625 91.113281 49.640625 L 91.183594 45.773438 L 90.808594 45.636719 C 90.714844 45.539062 90.761719 45.421875 90.953125 45.304688 L 92.480469 44.171875 L 92.53125 48.34375 L 94.296875 48.34375 L 94.296875 43.464844 C 93.871094 43.277344 93.871094 42.996094 94.296875 42.6875 L 95.757812 41.652344 L 95.757812 45.570312 C 96.144531 45.195312 96.703125 44.996094 97.40625 44.996094 L 102.777344 44.996094 C 103.367188 44.996094 103.910156 45.1875 104.429688 45.585938 C 104.949219 46.011719 105.207031 46.601562 105.207031 47.355469 L 105.191406 48.34375 L 109.898438 48.34375 L 109.898438 47.402344 L 107.914062 47.402344 M 83.503906 42.476562 L 83.503906 48.34375 L 87.816406 48.34375 L 87.816406 46.695312 C 87.34375 46.578125 87.296875 46.339844 87.699219 45.984375 L 89.183594 44.953125 L 89.183594 49.640625 L 79.144531 49.640625 L 79.332031 47.425781 C 79.332031 47 79.753906 46.457031 80.628906 45.871094 C 81.144531 45.515625 81.617188 45.234375 82.042969 45.046875 L 82.113281 44.480469 C 81.761719 44.359375 81.640625 44.242188 81.761719 44.125 Z M 109.898438 45.636719 C 109.261719 45.824219 108.953125 46.058594 108.953125 46.410156 L 109.898438 46.410156 Z M 80.582031 48.34375 L 82.089844 48.34375 L 82.089844 46.484375 L 80.933594 47.070312 C 80.582031 47.304688 80.460938 47.753906 80.582031 48.34375 Z M 80.203125 41.625 C 80.792969 41.625 81.050781 41.863281 81.050781 42.285156 C 81.050781 42.640625 80.792969 42.828125 80.203125 42.828125 C 79.753906 42.828125 79.519531 42.640625 79.519531 42.285156 C 79.519531 41.863281 79.753906 41.625 80.203125 41.625 Z M 82.042969 41.625 C 82.632812 41.625 82.914062 41.863281 82.914062 42.285156 C 82.914062 42.640625 82.632812 42.828125 82.042969 42.828125 C 81.617188 42.828125 81.382812 42.640625 81.382812 42.285156 C 81.382812 41.863281 81.617188 41.625 82.042969 41.625 Z M 84.871094 50.113281 C 85.414062 50.113281 85.695312 50.347656 85.695312 50.773438 C 85.695312 51.125 85.414062 51.3125 84.871094 51.3125 C 84.398438 51.3125 84.164062 51.125 84.164062 50.773438 C 84.164062 50.347656 84.398438 50.113281 84.871094 50.113281 Z M 86.800781 50.113281 C 87.34375 50.113281 87.628906 50.347656 87.628906 50.773438 C 87.628906 51.125 87.34375 51.3125 86.800781 51.3125 C 86.332031 51.3125 86.09375 51.125 86.09375 50.773438 C 86.09375 50.347656 86.332031 50.113281 86.800781 50.113281 Z M 108.367188 41.511719 C 108.953125 41.511719 109.214844 41.746094 109.214844 42.167969 C 109.214844 42.523438 108.953125 42.710938 108.367188 42.710938 C 107.914062 42.710938 107.683594 42.523438 107.683594 42.167969 C 107.683594 41.746094 107.914062 41.511719 108.367188 41.511719 Z M 110.277344 41.511719 C 110.839844 41.511719 111.101562 41.746094 111.101562 42.167969 C 111.101562 42.523438 110.839844 42.710938 110.277344 42.710938 C 109.851562 42.710938 109.613281 42.523438 109.613281 42.167969 C 109.613281 41.746094 109.851562 41.511719 110.277344 41.511719 Z M 103.777344 48.34375 L 95.757812 48.34375 L 95.757812 46.96875 C 95.980469 46.574219 96.332031 46.363281 96.84375 46.363281 L 102.730469 46.363281 C 103.300781 46.363281 103.605469 46.484375 103.722656 46.765625 L 103.792969 47.425781 Z M 117.15625 41.816406 L 117.15625 49.640625 L 115.695312 49.640625 L 115.695312 43.347656 C 115.554688 43.394531 115.460938 43.347656 115.4375 43.230469 L 115.554688 42.875 L 117.15625 41.816406 "/>
</g>
<path style=" stroke:none;fill-rule:evenodd;fill:rgb(46.165466%,7.312012%,22.692871%);fill-opacity:1;" d="M 47.878906 36.234375 L 53.335938 36.234375 L 42.417969 11.796875 L 40.390625 11.796875 L 29.730469 36.234375 L 32.90625 36.234375 L 36.003906 28.640625 L 44.78125 28.640625 L 47.878906 36.234375 M 36.914062 26.40625 L 40.390625 17.878906 L 43.867188 26.40625 L 36.914062 26.40625 "/>
<path style=" stroke:none;fill-rule:evenodd;fill:rgb(46.165466%,7.312012%,22.692871%);fill-opacity:1;" d="M 88.121094 36.234375 L 93.582031 36.234375 L 82.664062 11.796875 L 80.636719 11.796875 L 69.976562 36.234375 L 73.148438 36.234375 L 76.242188 28.640625 L 85.027344 28.640625 L 88.121094 36.234375 M 77.15625 26.40625 L 80.636719 17.878906 L 84.113281 26.40625 L 77.15625 26.40625 "/>
<path style=" stroke:none;fill-rule:evenodd;fill:rgb(46.165466%,7.312012%,22.692871%);fill-opacity:1;" d="M 52.519531 11.796875 L 71.011719 11.796875 L 71.011719 14.757812 L 64.410156 14.757812 L 64.410156 36.234375 L 59.160156 36.234375 L 59.160156 14.757812 L 52.519531 14.757812 L 52.519531 11.796875 "/>
<path style=" stroke:none;fill-rule:evenodd;fill:rgb(46.165466%,7.312012%,22.692871%);fill-opacity:1;" d="M 27.503906 24.332031 C 27.503906 17.070312 21.347656 11.179688 13.753906 11.179688 C 6.15625 11.179688 0 17.070312 0 24.332031 C 0 31.597656 6.15625 37.488281 13.753906 37.488281 C 14.4375 37.488281 15.105469 37.425781 15.765625 37.332031 L 23.078125 43.929688 L 26.976562 40.808594 L 19.25 36.386719 C 24.109375 34.355469 27.503906 29.726562 27.503906 24.332031 M 13.753906 35.140625 C 8.707031 35.140625 4.621094 30.300781 4.621094 24.332031 C 4.621094 18.363281 8.707031 13.527344 13.753906 13.527344 C 18.796875 13.527344 22.882812 18.363281 22.882812 24.332031 C 22.882812 30.300781 18.796875 35.140625 13.753906 35.140625 "/>
<path style=" stroke:none;fill-rule:evenodd;fill:rgb(46.165466%,7.312012%,22.692871%);fill-opacity:1;" d="M 107.980469 24.847656 C 110.527344 24.328125 114.191406 21.933594 114.191406 17.125 C 114.191406 12.316406 108.511719 11.796875 108.511719 11.796875 L 97.683594 11.796875 L 97.683594 36.234375 L 101.949219 36.234375 L 101.949219 25.367188 L 103.402344 25.367188 L 110.421875 35.972656 L 116.453125 35.972656 L 107.980469 24.847656 M 101.949219 23.339844 L 101.949219 13.09375 L 107.460938 13.09375 C 107.460938 13.09375 110.421875 14.761719 110.421875 17.828125 C 110.421875 20.894531 109.121094 23.339844 107.25 23.339844 C 105.378906 23.339844 101.949219 23.339844 101.949219 23.339844 "/>
<path style=" stroke:none;fill-rule:nonzero;fill:rgb(47.889709%,49.215698%,50.946045%);fill-opacity:1;" d="M 31.378906 41.042969 L 32.550781 41.042969 L 35.667969 49.019531 L 34.492188 49.019531 L 33.621094 46.621094 L 30.25 46.621094 L 29.355469 49.019531 L 28.261719 49.019531 L 31.378906 41.042969 M 30.585938 45.726562 L 33.289062 45.726562 L 31.960938 42.003906 L 31.933594 42.003906 L 30.585938 45.726562 "/>
<path style=" stroke:none;fill-rule:nonzero;fill:rgb(47.889709%,49.215698%,50.946045%);fill-opacity:1;" d="M 36.492188 49.019531 L 37.554688 49.019531 L 37.554688 41.042969 L 36.492188 41.042969 Z M 36.492188 49.019531 "/>
<path style=" stroke:none;fill-rule:nonzero;fill:rgb(47.889709%,49.215698%,50.946045%);fill-opacity:1;" d="M 39.34375 41.042969 L 43.097656 41.042969 C 44.59375 41.042969 45.519531 41.859375 45.519531 43.132812 C 45.519531 44.09375 45.09375 44.890625 44.136719 45.15625 L 44.136719 45.179688 C 45.0625 45.355469 45.253906 46.039062 45.328125 46.820312 C 45.398438 47.601562 45.351562 48.472656 45.796875 49.019531 L 44.613281 49.019531 C 44.3125 48.699219 44.480469 47.835938 44.324219 47.054688 C 44.214844 46.273438 44.023438 45.613281 42.996094 45.613281 L 40.402344 45.613281 L 40.402344 49.019531 L 39.34375 49.019531 L 39.34375 41.042969 M 42.613281 44.71875 C 43.609375 44.71875 44.457031 44.464844 44.457031 43.300781 C 44.457031 42.519531 44.035156 41.9375 43.039062 41.9375 L 40.402344 41.9375 L 40.402344 44.71875 L 42.613281 44.71875 "/>
<path style=" stroke:none;fill-rule:nonzero;fill:rgb(47.889709%,49.215698%,50.946045%);fill-opacity:1;" d="M 54 49.019531 L 52.894531 49.019531 L 51.070312 42.316406 L 51.050781 42.316406 L 49.207031 49.019531 L 48.101562 49.019531 L 46.054688 41.042969 L 47.140625 41.042969 L 48.703125 47.679688 L 48.726562 47.679688 L 50.511719 41.042969 L 51.664062 41.042969 L 53.429688 47.679688 L 53.453125 47.679688 L 55.070312 41.042969 L 56.132812 41.042969 L 54 49.019531 "/>
<path style=" stroke:none;fill-rule:nonzero;fill:rgb(47.889709%,49.215698%,50.946045%);fill-opacity:1;" d="M 59.039062 41.042969 L 60.210938 41.042969 L 63.328125 49.019531 L 62.152344 49.019531 L 61.28125 46.621094 L 57.910156 46.621094 L 57.015625 49.019531 L 55.921875 49.019531 L 59.039062 41.042969 M 58.242188 45.726562 L 60.949219 45.726562 L 59.617188 42.003906 L 59.59375 42.003906 L 58.242188 45.726562 "/>
<path style=" stroke:none;fill-rule:nonzero;fill:rgb(47.889709%,49.215698%,50.946045%);fill-opacity:1;" d="M 66.578125 45.757812 L 66.578125 49.019531 L 65.515625 49.019531 L 65.515625 45.757812 L 62.433594 41.042969 L 63.695312 41.042969 L 66.085938 44.84375 L 68.421875 41.042969 L 69.628906 41.042969 L 66.578125 45.757812 "/>
<path style=" stroke:none;fill-rule:nonzero;fill:rgb(47.889709%,49.215698%,50.946045%);fill-opacity:1;" d="M 75.132812 43.378906 C 75.011719 42.238281 74.253906 41.75 73.15625 41.75 C 72.265625 41.75 71.371094 42.070312 71.371094 43.109375 C 71.371094 44.09375 72.644531 44.238281 73.929688 44.53125 C 75.203125 44.820312 76.476562 45.265625 76.476562 46.832031 C 76.476562 48.527344 74.8125 49.210938 73.359375 49.210938 C 71.570312 49.210938 70.0625 48.339844 70.0625 46.394531 L 71.070312 46.394531 C 71.070312 47.734375 72.183594 48.316406 73.390625 48.316406 C 74.351562 48.316406 75.414062 48.015625 75.414062 46.863281 C 75.414062 45.769531 74.140625 45.578125 72.867188 45.300781 C 71.59375 45.023438 70.308594 44.652344 70.308594 43.191406 C 70.308594 41.570312 71.75 40.855469 73.203125 40.855469 C 74.832031 40.855469 76.074219 41.625 76.140625 43.378906 L 75.132812 43.378906 "/>
</g>
</svg>

<svg xmlns="http://www.w3.org/2000/svg" width="176pt" height="69.013" viewBox="0 0 176 51.76"><defs><clipPath id="a"><path d="M79 41h39v10.762H79Zm0 0"/></clipPath></defs><path d="m136.355 7.402 13.301-.793c-7.027-.238-11.195-.238-12.508-.097l-1.964.422c-.235.234.187.375 1.171.468M133.402 10.73l21.875-.472-21.172-.746c-2.812-.188-4.355 0-4.59.515-.421.703.938.938 3.887.703M125.676 14.945l33.02-1.172-29.743-.375c-2.25 0-3.422.235-3.422.704zM127.875 19.348l33.164-1.5-35.926-.563c-.937.098-1.453.328-1.547.797-.14 1.031 1.266 1.406 4.309 1.266M123.098 23.14l39.254-.984-36.301-1.027c-2.344 0-3.563.375-3.75 1.262-.043.379.234.703.797.75M122.77 27.125l12.414-.14 1.73-1.97h-12.41c-1.875 0-2.719.422-2.484 1.266.046.469.28.797.75.844M125.531 31.293l7.871-.563 1.032-1.78-9.227.14c-1.781 0-2.672.375-2.672 1.078 0 .562.235.89.656.937zM126.754 35.04l20-.798-1.406-1.402-19.297.14-2.016.23c-.234.188-.328.47-.234.892.14.843 1.172 1.171 2.953.937M149.422 37.523l-19.906-.144c-2.438 0-3.512.285-3.465.984.23.89 1.59 1.13 4.168.89l20.422-.468z" style="stroke:none;fill-rule:evenodd;fill:#7a7e82;fill-opacity:1"/><path d="M151.902 41.598 130.5 41.41q-.703 0-.703.563c0 .703 1.496 1.027 4.45.843l19.765-.703zM138.414 45.719l11.711-.375-12.273-.469c-1.637-.234-2.48-.094-2.48.469z" style="stroke:none;fill-rule:evenodd;fill:#8f9599;fill-opacity:1"/><path d="M171.719 1.828c-4.266 1.828-12.555 6.652-24.824 14.617 6.32-3.515 12.128-6.234 17.515-8.199l9.602-3.184 1.875.141c.375.234-.188.563-1.5.934-2.246.707-6.414 2.437-12.504 5.246-7.028 3.187-11.055 5.437-12.227 6.84l8.106.187c-1.172 1.453-2.578 2.25-4.219 2.344l-1.547.047c1.781 2.902 4.688 4.543 8.668 4.777l2.715.14.14 2.11-11.382 1.121 11.008.703c.144 1.641.097 2.485-.137 2.485h-11.106l10.211 1.496-.605 2.625-9.23.703 8.199.887-1.922 2.625-5.012.656 3.89.844-4.265 2.949c-3.043-3.043-5.34-5.621-6.79-7.543l-3-4.168-4.12.89c3.605-2.574 5.527-4.542 5.855-5.714-.093-2.246-.234-3.746-.468-4.59l-1.5 1.547c-.235-2.25-.61-3.653-.98-4.215l-.563 1.73-2.485 2.157 1.778-.141c-1.075 5.996-3.508 9.836-7.352 11.383l-2.25-2.34 1.547-1.406-2.34.699-.469-.7c2.293-3.796 4.074-6.464 5.48-8.011l6.79-6.184c3.844-3.183 7.355-5.855 10.68-7.96 8.664-5.247 14.945-8.575 18.738-9.977 1.496-.563 2.105-.469 1.73.14z" style="stroke:none;fill-rule:evenodd;fill:#76133a;fill-opacity:1"/><g clip-path="url(#a)"><path d="M107.914 47.402v-1.226c0-.637.828-1.297 2.453-1.957l.899-.446v4.57h1.93v-4.995l-.282-.118c-.047-.117 0-.234.117-.355.192-.164.707-.516 1.578-1.105v7.87H92.461c0 .731-.285 1.32-.875 1.72l-1.246.402c-.403 0-.805-.211-1.23-.59-.231-.211-.188-.332.074-.352q.883.283 1.41-.215c.36-.234.52-.542.52-.964l.07-3.868-.375-.136c-.094-.098-.047-.215.144-.332l1.527-1.133.051 4.172h1.766v-4.88c-.426-.187-.426-.468 0-.776l1.46-1.036v3.918c.388-.375.946-.574 1.65-.574h5.37c.59 0 1.133.191 1.653.59q.779.639.777 1.77l-.016.988h4.707v-.942zm-24.41-4.925v5.867h4.312v-1.649c-.472-.117-.52-.355-.117-.71l1.485-1.032v4.688h-10.04l.188-2.215c0-.426.422-.969 1.297-1.555.516-.355.988-.637 1.414-.824l.07-.567c-.351-.12-.472-.238-.351-.355Zm26.394 3.16c-.636.187-.945.422-.945.773h.945Zm-29.316 2.707h1.508v-1.86l-1.156.586c-.352.235-.473.684-.352 1.274m-.379-6.719c.59 0 .848.238.848.66 0 .356-.258.543-.848.543-.45 0-.683-.187-.683-.543 0-.422.234-.66.683-.66m1.84 0c.59 0 .871.238.871.66 0 .356-.281.543-.871.543-.426 0-.66-.187-.66-.543 0-.422.234-.66.66-.66m2.828 8.488c.543 0 .824.235.824.66 0 .352-.28.54-.824.54-.473 0-.707-.188-.707-.54 0-.425.234-.66.707-.66m1.93 0c.543 0 .828.235.828.66 0 .352-.285.54-.828.54-.469 0-.707-.188-.707-.54 0-.425.238-.66.707-.66m21.566-8.601c.586 0 .848.234.848.656 0 .355-.262.543-.848.543-.453 0-.683-.188-.683-.543 0-.422.23-.656.683-.656m1.91 0c.563 0 .825.234.825.656 0 .355-.262.543-.825.543-.425 0-.664-.188-.664-.543 0-.422.239-.656.664-.656m-6.5 6.832h-8.02v-1.375c.223-.395.575-.606 1.087-.606h5.886c.57 0 .875.121.993.403l.07.66Zm13.38-6.528v7.825h-1.462v-6.293c-.14.047-.234 0-.257-.118l.117-.355z" style="stroke:none;fill-rule:evenodd;fill:#76133a;fill-opacity:1"/></g><path d="M47.879 36.234h5.457L42.418 11.797h-2.027L29.73 36.234h3.175l3.098-7.593h8.777zm-10.965-9.828 3.477-8.527 3.476 8.527zM88.121 36.234h5.461L82.664 11.797h-2.027l-10.66 24.437h3.171l3.094-7.593h8.785zm-10.965-9.828 3.48-8.527 3.477 8.527zM52.52 11.797h18.492v2.96H64.41v21.477h-5.25V14.758h-6.64zM27.504 24.332c0-7.262-6.156-13.152-13.75-13.152C6.156 11.18 0 17.07 0 24.332c0 7.266 6.156 13.156 13.754 13.156.684 0 1.351-.062 2.012-.156l7.312 6.598 3.899-3.121-7.727-4.422c4.86-2.032 8.254-6.66 8.254-12.055m-13.75 10.809c-5.047 0-9.133-4.84-9.133-10.809s4.086-10.805 9.133-10.805c5.043 0 9.129 4.836 9.129 10.805s-4.086 10.809-9.13 10.809M107.98 24.848c2.547-.52 6.211-2.914 6.211-7.723s-5.68-5.328-5.68-5.328H97.685v24.437h4.265V25.367h1.453l7.02 10.606h6.031zm-6.03-1.508V13.094h5.51s2.962 1.668 2.962 4.734c0 3.067-1.3 5.512-3.172 5.512z" style="stroke:none;fill-rule:evenodd;fill:#76133a;fill-opacity:1"/><path d="M31.379 41.043h1.172l3.117 7.977h-1.176l-.87-2.399H30.25l-.895 2.399h-1.093zm-.793 4.684h2.703l-1.328-3.723h-.027zM36.492 49.02h1.063v-7.977h-1.063ZM39.344 41.043h3.754c1.496 0 2.422.816 2.422 2.09 0 .96-.426 1.758-1.383 2.023v.024c.925.175 1.117.86 1.191 1.64.07.782.024 1.653.469 2.2h-1.184c-.3-.32-.133-1.184-.289-1.965-.11-.782-.3-1.442-1.328-1.442h-2.594v3.407h-1.058zm3.27 3.676c.995 0 1.843-.254 1.843-1.418 0-.781-.422-1.364-1.418-1.364h-2.637v2.782zM54 49.02h-1.105l-1.825-6.704h-.02l-1.843 6.704h-1.105l-2.047-7.977h1.086l1.562 6.637h.024l1.785-6.637h1.152l1.766 6.637h.023l1.617-6.637h1.063zM59.04 41.043h1.17l3.118 7.977h-1.176l-.87-2.399H57.91l-.894 2.399h-1.094zm-.797 4.684h2.707l-1.332-3.723h-.023zM66.578 45.758v3.262h-1.062v-3.262l-3.082-4.715h1.261l2.39 3.8 2.337-3.8h1.207zM75.133 43.379c-.121-1.14-.88-1.629-1.977-1.629-.89 0-1.785.32-1.785 1.36 0 .984 1.274 1.128 2.559 1.421 1.273.29 2.547.735 2.547 2.301 0 1.695-1.665 2.379-3.118 2.379-1.789 0-3.296-.871-3.296-2.816h1.007c0 1.34 1.114 1.921 2.32 1.921.962 0 2.024-.3 2.024-1.453 0-1.093-1.273-1.285-2.547-1.562-1.273-.278-2.558-.649-2.558-2.11 0-1.62 1.441-2.336 2.894-2.336 1.629 0 2.871.77 2.938 2.524z" style="stroke:none;fill-rule:nonzero;fill:#7a7e82;fill-opacity:1"/></svg>
